X: 10261
T: PRETTY DICK -- Polka
R: polka
B: K\"ohler's Violin Repository, v.1, 1885 p.26 #1
F: http://www.archive.org/details/klersviolinrepos01edin
Z: 2011 John Chambers <jc:trillian.mit.edu>
M: 2/4
L: 1/16
K: F
|:\
(Ac/)z/ (Ac/)z/ =Bcde | f2a2 (ac'/)z/ (ac'/)z/ | .c2.b2.d2.e2 | cagf edc=B |\
(Ac/)z/ (Ac/)z/ =Bcde | f2a2 (ac'/)z/ (ac'/)z/ | .c2b2(.d3.e) | f2[f2A2][f2A2] "_Fine"H:|
|: fff2 (ag)fe | dcBA B4 | AAA2 (dc)BA | G2^G2 A4 |\
fff2 (ag)fe | (dc)BA B4 | EEE2 (A2.G2) | F2F2F2 "_D.C.":|
K: Bb
P: Trio.
(DF)(DF) (D3.F) | (B4 F3)B | (Bd)(Bd) c3B | (A4 G4) |\
(CE)( CE) C3E | (A4 G3)G | (DF)(DF) C3E | (D4 B,4) |
(DF)(DF) (D3.F) | (B4 F3)B | (Bd)(Bd) c3B | (A4 G3)G |\
F2e2- edcB | F2d2- dcBF | E2c2- cBdc | B6 z2 ||
(df)(df) d3f | b4 f3b | (bd')(bd') c'3b | (a4 g4) |\
(ce)(ce) c3e | (a4 g3)g | (df)(df) (c3.e) | (d4 B4) |
(df)(df) (d3.f) | b4 (f3.b) | (bd')(bd') (c'3.b) | (a4 g3)g |\
f2e'2- e'd'c'b | f2d'2- d'c'bf | e2c'2- c'bd'c' | b6 "_D.C."|]

%%sep 2 1 500

